svg/l/BR.svg

<svg width="32" height="24" viewBox="0 0 32 24" fill="none" xmlns="http://www.w3.org/2000/svg">
<mask id="mask0" mask-type="alpha" maskUnits="userSpaceOnUse" x="0" y="0" width="32" height="24">
<rect width="32" height="24" fill="white"/>
</mask>
<g mask="url(#mask0)">
<path fill-rule="evenodd" clip-rule="evenodd" d="M0 0V24H32V0H0Z" fill="#009933"/>
<mask id="mask1" mask-type="alpha" maskUnits="userSpaceOnUse" x="0" y="0" width="32" height="24">
<path fill-rule="evenodd" clip-rule="evenodd" d="M0 0V24H32V0H0Z" fill="white"/>
</mask>
<g mask="url(#mask1)">
<g filter="url(#filter0_d)">
<path fill-rule="evenodd" clip-rule="evenodd" d="M15.9268 3.70404L28.1286 12.2075L15.7608 20.1713L3.80893 12.0427L15.9268 3.70404Z" fill="#FFD221"/>
<path fill-rule="evenodd" clip-rule="evenodd" d="M15.9268 3.70404L28.1286 12.2075L15.7608 20.1713L3.80893 12.0427L15.9268 3.70404Z" fill="url(#paint0_linear)"/>
</g>
<path fill-rule="evenodd" clip-rule="evenodd" d="M16 17.2C18.7614 17.2 21 14.9614 21 12.2C21 9.43853 18.7614 7.19995 16 7.19995C13.2386 7.19995 11 9.43853 11 12.2C11 14.9614 13.2386 17.2 16 17.2Z" fill="#2E42A5"/>
<mask id="mask2" mask-type="alpha" maskUnits="userSpaceOnUse" x="11" y="7" width="10" height="11">
<path fill-rule="evenodd" clip-rule="evenodd" d="M16 17.2C18.7614 17.2 21 14.9614 21 12.2C21 9.43853 18.7614 7.19995 16 7.19995C13.2386 7.19995 11 9.43853 11 12.2C11 14.9614 13.2386 17.2 16 17.2Z" fill="white"/>
</mask>
<g mask="url(#mask2)">
<path fill-rule="evenodd" clip-rule="evenodd" d="M14.38 14.57L14.1566 14.6874L14.1993 14.4387L14.0186 14.2626L14.2683 14.2263L14.38 14L14.4917 14.2263L14.7414 14.2626L14.5607 14.4387L14.6034 14.6874L14.38 14.57Z" fill="#F7FCFF"/>
<path fill-rule="evenodd" clip-rule="evenodd" d="M16.38 14.57L16.1566 14.6874L16.1993 14.4387L16.0186 14.2626L16.2683 14.2263L16.38 14L16.4917 14.2263L16.7414 14.2626L16.5607 14.4387L16.6034 14.6874L16.38 14.57Z" fill="#F7FCFF"/>
<path fill-rule="evenodd" clip-rule="evenodd" d="M16.38 15.77L16.1566 15.8874L16.1993 15.6387L16.0186 15.4625L16.2683 15.4262L16.38 15.2L16.4917 15.4262L16.7414 15.4625L16.5607 15.6387L16.6034 15.8874L16.38 15.77Z" fill="#F7FCFF"/>
<path fill-rule="evenodd" clip-rule="evenodd" d="M15.38 11.57L15.1566 11.6874L15.1993 11.4387L15.0186 11.2626L15.2683 11.2263L15.38 11L15.4917 11.2263L15.7414 11.2626L15.5607 11.4387L15.6034 11.6874L15.38 11.57Z" fill="#F7FCFF"/>
<path fill-rule="evenodd" clip-rule="evenodd" d="M15.38 13.57L15.1566 13.6874L15.1993 13.4387L15.0186 13.2626L15.2683 13.2263L15.38 13L15.4917 13.2263L15.7414 13.2626L15.5607 13.4387L15.6034 13.6874L15.38 13.57Z" fill="#F7FCFF"/>
<path fill-rule="evenodd" clip-rule="evenodd" d="M13.98 12.57L13.7566 12.6874L13.7993 12.4387L13.6186 12.2626L13.8683 12.2263L13.98 12L14.0917 12.2263L14.3414 12.2626L14.1607 12.4387L14.2033 12.6874L13.98 12.57Z" fill="#F7FCFF"/>
<path fill-rule="evenodd" clip-rule="evenodd" d="M12.58 13.37L12.3566 13.4875L12.3993 13.2388L12.2185 13.0626L12.4683 13.0263L12.58 12.8L12.6916 13.0263L12.9414 13.0626L12.7607 13.2388L12.8033 13.4875L12.58 13.37Z" fill="#F7FCFF"/>
<path fill-rule="evenodd" clip-rule="evenodd" d="M17.18 9.97002L16.9567 10.0875L16.9993 9.83874L16.8186 9.6626L17.0684 9.62631L17.18 9.40002L17.2917 9.62631L17.5415 9.6626L17.3607 9.83874L17.4034 10.0875L17.18 9.97002Z" fill="#F7FCFF"/>
<path d="M9.9248 10.9971L10.0752 9.00281C14.8731 9.36459 18.66 10.9422 21.3882 13.7484L19.9542 15.1425C17.5896 12.7103 14.2624 11.3242 9.9248 10.9971Z" fill="#F7FCFF"/>
<path d="M12.2894 10.6028L12.3409 10.1055C15.4339 10.4259 18.0868 11.6105 20.2917 13.657L19.9516 14.0234C17.8269 12.0515 15.2755 10.9121 12.2894 10.6028Z" fill="#009933"/>
</g>
</g>
</g>
<defs>
<filter id="filter0_d" x="3.80896" y="3.70398" width="24.3197" height="16.4672" filterUnits="userSpaceOnUse" color-interpolation-filters="sRGB">
<feFlood flood-opacity="0" result="BackgroundImageFix"/>
<feColorMatrix in="SourceAlpha" type="matrix" values="0 0 0 0 0 0 0 0 0 0 0 0 0 0 0 0 0 0 127 0"/>
<feOffset/>
<feColorMatrix type="matrix" values="0 0 0 0 0.0313726 0 0 0 0 0.368627 0 0 0 0 0 0 0 0 0.28 0"/>
<feBlend mode="normal" in2="BackgroundImageFix" result="effect1_dropShadow"/>
<feBlend mode="normal" in="SourceGraphic" in2="effect1_dropShadow" result="shape"/>
</filter>
<linearGradient id="paint0_linear" x1="32" y1="24" x2="32" y2="0" gradientUnits="userSpaceOnUse">
<stop stop-color="#FFC600"/>
<stop offset="1" stop-color="#FFDE42"/>
</linearGradient>
</defs>
</svg>

<svg width="32" height="24" fill="none" xmlns="http://www.w3.org/2000/svg">
  <mask id="a" maskUnits="userSpaceOnUse" x="0" y="0" width="32" height="24">
    <path fill="#fff" d="M0 0h32v24H0z"/>
  </mask>
  <g mask="url(#a)">
    <path fill-rule="evenodd" clip-rule="evenodd" d="M0 0v24h32V0H0z" fill="#093"/>
    <mask id="b" maskUnits="userSpaceOnUse" x="0" y="0" width="32" height="24">
      <path fill-rule="evenodd" clip-rule="evenodd" d="M0 0v24h32V0H0z" fill="#fff"/>
    </mask>
    <g mask="url(#b)">
      <g filter="url(#BR_-_Brazil__filter0_d)" fill-rule="evenodd" clip-rule="evenodd">
        <path d="M15.927 3.704l12.202 8.504L15.76 20.17 3.809 12.043l12.118-8.339z" fill="#FFD221"/>
        <path d="M15.927 3.704l12.202 8.504L15.76 20.17 3.809 12.043l12.118-8.339z" fill="url(#BR_-_Brazil__paint0_linear)"/>
      </g>
      <path fill-rule="evenodd" clip-rule="evenodd" d="M16 17.2a5 5 0 100-10 5 5 0 000 10z" fill="#2E42A5"/>
      <mask id="c" maskUnits="userSpaceOnUse" x="11" y="7" width="10" height="11">
        <path fill-rule="evenodd" clip-rule="evenodd" d="M16 17.2a5 5 0 100-10 5 5 0 000 10z" fill="#fff"/>
      </mask>
      <g mask="url(#c)">
        <path fill-rule="evenodd" clip-rule="evenodd" d="M14.38 14.57l-.223.117.042-.248-.18-.176.25-.037.111-.226.112.226.25.037-.181.176.042.248-.223-.117zm2 0l-.223.117.042-.248-.18-.176.25-.037.111-.226.112.226.25.037-.181.176.042.248-.223-.117zm0 1.2l-.223.117.042-.248-.18-.176.25-.037.111-.226.112.226.25.037-.181.176.042.248-.223-.117zm-1-4.2l-.223.117.042-.248-.18-.176.25-.037.111-.226.112.226.25.037-.181.176.042.248-.223-.117zm0 2l-.223.117.042-.248-.18-.176.25-.037.111-.226.112.226.25.037-.181.176.042.248-.223-.117zm-1.4-1l-.223.117.042-.248-.18-.176.25-.037.111-.226.112.226.25.037-.181.176.042.248-.223-.117zm-1.4.8l-.223.117.042-.248-.18-.176.25-.037.111-.226.112.226.25.037-.181.176.042.248-.223-.117zm4.6-3.4l-.223.117.042-.248-.18-.176.25-.037.111-.226.112.226.25.037-.181.176.042.248-.223-.117z" fill="#F7FCFF"/>
        <path d="M9.925 10.997l.15-1.994c4.798.362 8.585 1.94 11.313 4.745l-1.434 1.395c-2.364-2.433-5.692-3.819-10.03-4.146z" fill="#F7FCFF"/>
        <path d="M12.29 10.603l.05-.498c3.094.32 5.747 1.505 7.952 3.552l-.34.366c-2.125-1.971-4.677-3.11-7.663-3.42z" fill="#093"/>
      </g>
    </g>
  </g>
  <defs>
    <linearGradient id="BR_-_Brazil__paint0_linear" x1="32" y1="24" x2="32" y2="0" gradientUnits="userSpaceOnUse">
      <stop stop-color="#FFC600"/>
      <stop offset="1" stop-color="#FFDE42"/>
    </linearGradient>
    <filter id="BR_-_Brazil__filter0_d" x="3.809" y="3.704" width="24.32" height="16.467" filterUnits="userSpaceOnUse" color-interpolation-filters="sRGB">
      <feFlood flood-opacity="0" result="BackgroundImageFix"/>
      <feColorMatrix in="SourceAlpha" values="0 0 0 0 0 0 0 0 0 0 0 0 0 0 0 0 0 0 127 0"/>
      <feOffset/>
      <feColorMatrix values="0 0 0 0 0.0313726 0 0 0 0 0.368627 0 0 0 0 0 0 0 0 0.28 0"/>
      <feBlend in2="BackgroundImageFix" result="effect1_dropShadow"/>
      <feBlend in="SourceGraphic" in2="effect1_dropShadow" result="shape"/>
    </filter>
  </defs>
</svg>
